X:133
T: Die elfjaehrige Markgraefin
N: Q3053K
O: Osteuropa, UdSSR, Galizien, Lemken - Gebiet
N: Melodievergleich zu Q0053 , anderes Lied, textverwandt mit Q0006.
R: Ballade, Braut - Werbung
M: 4/4
L: 1/8
K: F
F2FG | ABc2A2G2 | F4
c2cd | e2f2e2d2 | c4
f2fc | d2c2ddB2 | A4
F2FG | ABc2AAG2 | F4

@@@ Tune index: 869
